X:60
T: Eddie McLoughlin's
N: Close relative of the "Yellow Tinker"
M: 4/4
L: 1/8
S: Luke O'Malley Volume 1
R: reel
K: Gdor
DGG2 DFF2 | DGG2 dGAF | DGG2 DFF2 | c2 AF CFAF |
DGG2 DFF2 | DGG2 dGAF | DGGF D^CDE | F2 CF A=BcA ||
dGG2 dGeG | dGG2 cFAc | dGG2 dGed | c2 AF CFAF |
dGG2 eGG2 | dGG2 cFAc | d^cde fefd | c2 AF cFAF ||
